docs/img/boxes_icon.svg

<svg xmlns="http://www.w3.org/2000/svg" viewBox="0 0 126.2 186.5" fill="#fff"><path d="M52.1 73.2V48.7L24.7 32.9 0 43.9v25.2l28.8 17.7 23.3-13.6zM29.9 83.6V62.1l20-10.9v20.7l-20 11.7zm18.9-34.3l-20 10.9L3.5 44.8l21.1-9.4 24.2 13.9zM2.2 46.6l25.5 15.5v21.5L2.2 67.9V46.6zm100.3 85l14.8-15.7L80.4 94l-15.2 15.9L50.3 94l-37.1 22 14.7 15.6-19.4 4.8 20.4 12v14.9l36.6 23.3 36.2-23.2v-15.3l19.2-11.5-18.4-5zm-37.3 12.1l6.5 4.1-6.4 4.1-.3-.2-6.6-4 6.8-4zm8.8 3.1l-7.7-4.9v-28.4l32 18.8L74 146.8zm-9.9-5l-8 4.8-24-14.4 32-18.8v28.4zm36.6-8.4l14.6 4-32.8 19.7-14.5-4.2 32.7-19.5zM80.8 96.8l33.1 19.6-13.5 14.4L67 111.2l13.8-14.4zm-30.9 0l13.6 14.5-33.3 19.6-13.5-14.3 33.2-19.8zm-20.1 36.6L62.5 153l-14.6 4-33.6-19.7 15.5-3.9zm1.3 16.3l16.4 9.6 16.6-4.6v28.4l-33-21.1v-12.3zm68.4 12.5l-33.1 21.2v-28.6l16.4 4.7 16.7-10v12.7zM101.3 0L80.8 11.1v21.6l25 15.1L126.1 35V13.8L101.3 0zm21.6 14.5l-17 10-21.7-12.7 17.1-9.3 21.6 12zM83 13.7l21.7 12.7v18.3L83 31.5V13.7zm24 30.9V26.4l17-10v17.5l-17 10.7zm2.8 35.6l-.3-18.8-22.4-12.1L70 59.2v19l22 13.3 17.8-11.3zm-16.8 8V72.6l14.2-8.6.3 15L93 88.2zm-5.9-36.4l19 10.3-14.2 8.6-18.6-10.9 13.8-8zm-14.9 9.9l18.7 10.9v15.6L72.2 76.9V61.7z"/></svg>

<?xml version="1.0" encoding="utf-8"?>
<!-- Generator: Adobe Illustrator 23.0.1, SVG Export Plug-In . SVG Version: 6.00 Build 0)  -->
<svg version="1.1" id="Layer_1" xmlns="http://www.w3.org/2000/svg" xmlns:xlink="http://www.w3.org/1999/xlink" x="0px" y="0px"
	 viewBox="0 0 126.2 186.5" style="enable-background:new 0 0 126.2 186.5;" xml:space="preserve">
<style type="text/css">
	.st0{fill:#FFFFFF;}
</style>
<g>
	<path class="st0" d="M52.1,73.2V48.7L24.7,32.9L0,43.9v25.2l28.8,17.7L52.1,73.2z M29.9,83.6V62.1l20-10.9v20.7L29.9,83.6z
		 M48.8,49.3L28.8,60.2L3.5,44.8l21.1-9.4L48.8,49.3z M2.2,46.6l25.5,15.5v21.5L2.2,67.9V46.6z"/>
	<path class="st0" d="M102.5,131.6l14.8-15.7L80.4,94l-15.2,15.9L50.3,94l-37.1,22l14.7,15.6l-19.4,4.8l20.4,12v14.9l36.6,23.3
		l36.2-23.2v-15.3l19.2-11.5L102.5,131.6z M65.2,143.7l6.5,4.1l-6.4,4.1l-0.3-0.2l-6.6-4L65.2,143.7z M74,146.8l-7.7-4.9v-28.4
		l32,18.8L74,146.8z M64.1,141.8l-8,4.8l-24-14.4l32-18.8V141.8z M100.7,133.4l14.6,4l-32.8,19.7L68,152.9L100.7,133.4z M80.8,96.8
		l33.1,19.6l-13.5,14.4L67,111.2L80.8,96.8z M49.9,96.8l13.6,14.5l-33.3,19.6l-13.5-14.3L49.9,96.8z M29.8,133.4L54,147.9l0,0
		l8.5,5.1l-14.6,4l-33.6-19.7L29.8,133.4z M31.1,149.7l16.4,9.6l16.6-4.6v28.4L31.1,162V149.7z M99.5,162.2l-33.1,21.2v-28.6
		l16.4,4.7l16.7-10V162.2z"/>
	<path class="st0" d="M101.3,0L80.8,11.1v21.6l25,15.1l20.3-12.8V13.8L101.3,0z M122.9,14.5l-17,10L84.2,11.8l17.1-9.3L122.9,14.5z
		 M83,13.7l21.7,12.7v18.3L83,31.5V13.7z M107,44.6V26.4l17-10v17.5L107,44.6z"/>
	<path class="st0" d="M109.8,80.2l-0.3-18.8L87.1,49.3L70,59.2v19l22,13.3L109.8,80.2z M93,88.2V72.6l14.2-8.6l0.3,15L93,88.2z
		 M87.1,51.8l19,10.3l-14.2,8.6L73.3,59.8L87.1,51.8z M72.2,61.7l18.7,10.9v15.6L72.2,76.9V61.7z"/>
</g>
</svg>
